app/dist/common/images/dover.svg

<svg height="18" width="18" xmlns="http://www.w3.org/2000/svg"><path d="m0 0h18v18h-18z" fill="#004c9a"/><path d="m9.923 14c2.884 0 4.077-1.227 4.077-3.376v-3.116c0-2.15-1.193-3.508-4.077-3.508h-5.923v10zm-1.923-8h.79c.895 0 1.21.276 1.21 1.083v3.834c0 .803-.314 1.083-1.21 1.083h-.79z" fill="#fff"/></svg>

<!-- by TradingView --><svg width="18" height="18" xmlns="http://www.w3.org/2000/svg"><path fill="#004C9A" d="M0 0h18v18H0z"/><path d="M9.923 14C12.807 14 14 12.773 14 10.624V7.508C14 5.358 12.807 4 9.923 4H4v10h5.923zM8 6h.79C9.685 6 10 6.276 10 7.083v3.834C10 11.72 9.686 12 8.79 12H8V6z" fill="#fff"/></svg>
